X:0970
T:Peggy Bawn.
M:3/4
L:1/8
Q:1/4=100
I: ||
N:bar 14 is printed |dB GFE|
Z:Jack Campin * www.campin.me.uk * 2009
K:D
A2|d2 fd`ec|dB G2 FE|D2 FA`Bc|d4 \
A2|d2 fd`cA|dB G2 FE|D2 FA Bc|d4
de|f2 f2 ge|fd B2 cd|e2 e2 fd|c4 \
A2|d2 fd`cA|dB G2 FE|D2 FA`Bc|d4|]

